X:1
T:Septième Concert Royale
T:Couperin, François (1668-1733)
T:Septième Concert Royale
T:I. Gravement et gracieusement
T:Studio KonKon, IMSLP#29449 Public Domain © comp.1724, pub.1724
T:Studio KonKon, IMSLP#29449 Public Domain © comp.1724, pub.1724
C:Couperin, François
C:(1668-1733)
Z:Couperin, François
Z:Studio KonKon, IMSLP#29449
Z:Public Domain © comp.1724, pub.1724
%%score 1 { 2 3 }
L:1/8
Q:1/4=60
M:4/4
K:F
V:1 treble nm="P1"
V:2 treble nm="P2"
V:3 bass nm="P3"
V:1
"^Gravement et gracieuse" z dAB P^F>GA/B/c/A/ |{A} MB{A}G g>f _ed Pc>B | %2
 PAD (B/A/)(B/A/) PG G_e/d/e/d/ | PcF (f/_e/)(f/d/) g/a/b/d/ Pc>B | B dAB P^F>GA/B/c/A/ | %5
{A} MB{A}G g>f e/f/d/e/ P^c>d | MeA Mf>f (f3/2g/4e/4) Pe>d | d bdPe Mf2- f/a/g/f/ | %8
 Pec' (e/g/)(^f/a/) Mg2- g/b/Pa/g/ | P^f dAB P^FdAP=B | Mc2- c/(_e/Pd/)c/ d/c/B/c/ PA>G | %11
 G"_doux" dAB P^Fd AP=B | Mc2- (c3/4d/8_e/8Pd/>c/) (d/>c/ B3/4c/8B/8) PA>G | G8 |] %14
V:2
 z2 z [Gd] [C^F] [DG] [FA] [Fc] | [GB] [GB] [Gc] [F=B] [_Ec] [DG] [C^F] [B,G] | %2
 [^FA] z z [DB] [GB]2 [_Ec] [EG] | [CA]2 [FB] [DF] [B,CG]2 [B,CF] [A,CF] | %4
 [B,DF] z z [Gd] [C^F] [DG] [FA] [CF] | [DGB] [Bd] [G^c] [Fd] [Ge] [FA] [^CA]2 | %6
 [GA] [G^c] [Fd]2 [FB]3/2 [DEB]/ [^CA] [CE] | [D^F] z z2 z A [=Fc] [Fd] | %8
 [EG] z z2 z B [Gd] [G_e]/ [Gc]/ | [^FA] z z [Gd] [CF] [DG] [CA] [=B,G-] | %10
 [CG] [_EA] [Ec] [C^F] [DG] [B,D] [DG] [DF] | [B,G] z z [GB] [C^F] [DG] [CA] [=B,G] | %12
 [CG] [_EA] [Ec] [C^F] [DG] [B,D] [A,DG] [DF] | [B,DG]8 |] %14
V:3
 z2 z"_6\n4\n" D"_H" A,"_6"B,"_ï" ^F,"_7\nD\n"D, | %1
 G,[K:alto] G/F/"_6" _E"_Y"D"_C" C"_6"B,"_H" A,G, |"_D" D[K:bass] z z G,"_5" _E/D/E/D/"_C" CC, | %3
 F,/_E,/F,/E,/"_6" D,B,,"_6\n5\n" E,/F,/G,/E,/"_4" F,"_3"F,, | %4
 B,, z z"_6\n4\n" D"_H" A,"_6"B,"_ï" ^F,"_7\nD\n"D, | G,[K:alto] G/F/"_H" ED"_ï" ^CD"_D" AA,/=B,/ | %6
"_ï" ^C/D/E/A,/[K:bass] D/=C/B,/A,/"_7" G,/A,/B,/"_6\n5\n"G,/"_D" A,A,, | %7
"_D" D, z z2[K:alto] z F"_6"A,"_ï"=B, | C z z2 z G"_6"B,/D/"_6\n5\nC\n"C/_E/ | %9
"_D" D[K:bass] z z"_6\n4\n" D"_H"A,"_6"B,"_ï" ^F,/D,/"_E"G,/=F,/ | %10
"_6" E,/B,/"_ï\n8\n"A,/G,/"_7\nï\n" ^F,"_H"A,"_6" B,,G,,"_4" D,"_D"D,, | %11
 G,, z z"_6\n4\n" D"_H" A,"_6"B,"_ï" ^F,/D,/"_E"G,/=F,/ | %12
"_6" E,/B,/"_8\nï\n"A,/G,/"_7\nï\n" ^F,"_H"A,"_6" B,,G,,"_5\n4\n" D,"_D"D,, | G,,8 |] %14

